build/img/icon/tm.svg

<svg width="50" height="50" viewBox="0 0 50 50" fill="none" xmlns="http://www.w3.org/2000/svg"><path d="M25 50C38.8071 50 50 38.8071 50 25C50 11.1929 38.8071 0 25 0C11.1929 0 0 11.1929 0 25C0 38.8071 11.1929 50 25 50Z" fill="#0087D0"></path><path d="M36.11 13.0399L9.40999 22.7999C8.86999 22.9999 8.85999 23.7999 9.38999 24.0299L16.23 26.7199L18.78 34.4099C18.93 34.8199 19.47 34.9599 19.81 34.6799L23.73 31.1899L31.17 35.9099C31.55 36.1499 32.06 35.9399 32.15 35.5099L36.99 13.7599C37.09 13.2799 36.59 12.8699 36.11 13.0599V13.0399ZM20.03 28.1599L19.6 32.1199L17.53 26.0299L32.1 16.8699L20.03 28.1699V28.1599Z" fill="white"></path></svg>

<svg width="50" height="50" fill="none" xmlns="http://www.w3.org/2000/svg"><path d="M25 50c13.807 0 25-11.193 25-25S38.807 0 25 0 0 11.193 0 25s11.193 25 25 25z" fill="#0087D0"/><path d="M36.11 13.04L9.41 22.8c-.54.2-.55 1-.02 1.23l6.84 2.69 2.55 7.69c.15.41.69.55 1.03.27l3.92-3.49 7.44 4.72c.38.24.89.03.98-.4l4.84-21.75c.1-.48-.4-.89-.88-.7v-.02zM20.03 28.16l-.43 3.96-2.07-6.09 14.57-9.16-12.07 11.3v-.01z" fill="#fff"/></svg>
